carriers/dhl.svg

<svg width="128" height="64" viewBox="0 0 128 64" fill="none" xmlns="http://www.w3.org/2000/svg">
<rect width="128" height="64" rx="6" fill="#FFCC00"/>
<path d="M6 36.8671H21.6906L20.8293 38.0338H6V36.8671Z" fill="#D40511"/>
<path d="M6 34.7024H23.2765L22.4197 35.8691H6V34.7024Z" fill="#D40511"/>
<path d="M6 39.0318H20.0955L19.2388 40.1894H6V39.0318Z" fill="#D40511"/>
<path d="M122 38.0338H106.373L107.23 36.8717H122V38.0338Z" fill="#D40511"/>
<path d="M122 40.1894L104.787 40.1939L105.64 39.0318H122V40.1894Z" fill="#D40511"/>
<path d="M108.825 34.7024H122V35.8691L107.964 35.8736L108.825 34.7024Z" fill="#D40511"/>
<path d="M21.1938 40.1939L28.654 30.0768H37.8916C38.9124 30.0768 38.8987 30.4642 38.402 31.1432L36.5153 33.7044C36.2555 34.0599 35.777 34.7024 37.3447 34.7024H49.7085C48.6694 36.1334 45.3563 40.1711 39.3453 40.1711L21.1938 40.1939Z" fill="#D40511"/>
<path d="M63.8269 34.7252L59.7892 40.1939H49.1389L53.1766 34.7252H63.8269Z" fill="#D40511"/>
<path d="M79.2254 34.7252L75.1877 40.1939H64.542L68.5797 34.7252H79.2254Z" fill="#D40511"/>
<path d="M82.6848 34.7252L81.5272 36.302C80.192 38.1249 81.3723 40.2122 85.7381 40.2122H102.832L106.87 34.7435L82.6848 34.7252Z" fill="#D40511"/>
<path d="M26.3981 23.7879L22.6885 28.8008H42.8907C43.9115 28.8008 43.8979 29.1882 43.4011 29.8627C42.9044 30.5371 42.034 31.7448 41.5281 32.4421C41.2683 32.7975 40.7944 33.4401 42.3575 33.4401H50.6198L53.0625 30.168C54.58 28.099 53.1946 23.8243 47.767 23.8243L26.3981 23.7879Z" fill="#D40511"/>
<path d="M80.1417 33.4629H54.0925L61.2155 23.7879H71.8612L67.7779 29.334H72.5311L76.6144 23.7879H87.2601L80.1417 33.4629Z" fill="#D40511"/>
<path d="M102.003 23.7879L94.8799 33.4629H83.5962C83.5962 33.4629 90.7237 23.7879 90.7283 23.7879H102.003Z" fill="#D40511"/>
</svg>

<svg xmlns="http://www.w3.org/2000/svg" width="128" height="64" fill="none"><rect width="128" height="64" fill="#FC0" rx="6"/><path fill="#D40511" d="M6 36.867h15.69l-.86 1.167H6v-1.167ZM6 34.702h17.276l-.856 1.167H6v-1.167ZM6 39.032h14.096l-.857 1.157H6v-1.157ZM122 38.034h-15.627l.857-1.162H122v1.162ZM122 40.19l-17.213.004.853-1.162H122v1.157ZM108.825 34.702H122v1.167l-14.036.005.861-1.172ZM21.194 40.194l7.46-10.117h9.238c1.02 0 1.007.387.51 1.066l-1.887 2.561c-.26.356-.738.998.83.998h12.364c-1.04 1.431-4.353 5.47-10.364 5.47l-18.151.022ZM63.827 34.725l-4.038 5.469H49.14l4.038-5.469h10.65ZM79.225 34.725l-4.037 5.469H64.542l4.038-5.469h10.645ZM82.685 34.725l-1.158 1.577c-1.335 1.823-.155 3.91 4.211 3.91h17.094l4.038-5.469-24.185-.018Z"/><path fill="#D40511" d="m26.398 23.788-3.71 5.013h20.203c1.02 0 1.007.387.51 1.062-.497.674-1.367 1.882-1.873 2.58-.26.355-.734.997.83.997h8.262l2.443-3.272c1.517-2.069.132-6.344-5.296-6.344l-21.369-.036ZM80.142 33.463h-26.05l7.123-9.675h10.646l-4.083 5.546h4.753l4.083-5.546H87.26l-7.118 9.675ZM102.003 23.788l-7.123 9.675H83.596s7.128-9.675 7.132-9.675h11.275Z"/></svg>
